symbols/web/block/materialsymbolsoutlined/block_wght700grad200_24px.svg

<svg xmlns="http://www.w3.org/2000/svg" height="24" width="24"><path d="M12 23.15q-2.325 0-4.35-.875-2.025-.875-3.538-2.4Q2.6 18.35 1.725 16.312.85 14.275.85 11.95q0-2.3.875-4.325Q2.6 5.6 4.112 4.087q1.513-1.512 3.551-2.375Q9.7.85 12 .85t4.337.862q2.038.863 3.551 2.375Q21.4 5.6 22.275 7.625t.875 4.325q0 2.325-.875 4.362-.875 2.038-2.387 3.563-1.513 1.525-3.538 2.4T12 23.15Zm0-3.4q3.225 0 5.488-2.275Q19.75 15.2 19.75 11.95q0-1.1-.3-2.163-.3-1.062-.9-2.012L7.8 18.5q.925.65 2 .95 1.075.3 2.2.3Zm-6.575-3.625L16.15 5.375q-.95-.575-2-.85T12 4.25q-3.225 0-5.487 2.25Q4.25 8.75 4.25 11.95q0 1.1.3 2.162.3 1.063.875 2.013Z"/></svg>

<svg xmlns="http://www.w3.org/2000/svg" height="24" width="24"><path d="M4.25 11.95Q4.25 13.05 4.55 14.112Q4.85 15.175 5.425 16.125L16.15 5.375Q15.2 4.8 14.15 4.525Q13.1 4.25 12 4.25Q8.775 4.25 6.513 6.5Q4.25 8.75 4.25 11.95ZM7.8 18.5Q8.725 19.15 9.8 19.45Q10.875 19.75 12 19.75Q15.225 19.75 17.488 17.475Q19.75 15.2 19.75 11.95Q19.75 10.85 19.45 9.787Q19.15 8.725 18.55 7.775ZM0.85 11.95Q0.85 9.65 1.725 7.625Q2.6 5.6 4.112 4.087Q5.625 2.575 7.663 1.712Q9.7 0.85 12 0.85Q14.3 0.85 16.337 1.712Q18.375 2.575 19.888 4.087Q21.4 5.6 22.275 7.625Q23.15 9.65 23.15 11.95Q23.15 14.275 22.275 16.312Q21.4 18.35 19.888 19.875Q18.375 21.4 16.35 22.275Q14.325 23.15 12 23.15Q9.675 23.15 7.65 22.275Q5.625 21.4 4.112 19.875Q2.6 18.35 1.725 16.312Q0.85 14.275 0.85 11.95Z"/></svg>
